frontend/static/images/logo.svg

<svg xmlns="http://www.w3.org/2000/svg" viewBox="284 374 180.4 44.2"><path fill="#666" d="M303.6 408.2c0 1.4 1.1 2.4 2.4 2.4 1.3 0 2.4-1.1 2.4-2.4 0-1.3-1.1-2.4-2.4-2.4-1.3 0-2.4 1.1-2.4 2.4zm0-34.2v9.8h4.9v-4.7c8.3 1.2 14.7 8.3 14.7 16.9 0 9.5-7.7 17.1-17.1 17.1S289 405.4 289 396c0-4.1 1.4-7.9 3.9-10.8l13.3 13.3 3.4-3.4-16.6-16.6c-5.4 4-8.8 10.4-8.8 17.6 0 12.2 9.8 22 22 22s22-9.9 22-22c0-12.2-9.9-22-22-22h-2.6zm17.1 22c0-1.3-1.1-2.4-2.4-2.4-1.3 0-2.4 1.1-2.4 2.4 0 1.3 1.1 2.4 2.4 2.4 1.3 0 2.4-1.1 2.4-2.4zm-29.4 0c0 1.3 1.1 2.4 2.4 2.4 1.3 0 2.4-1.1 2.4-2.4 0-1.3-1.1-2.4-2.4-2.4-1.3 0-2.4 1.1-2.4 2.4z"/><text transform="translate(336.8 408.6)" fill="#666" font-family="'Kefa-Bold'" font-size="38">Tracky</text></svg>

<?xml version="1.0" encoding="utf-8"?>
<!-- Generator: Adobe Illustrator 17.1.0, SVG Export Plug-In . SVG Version: 6.00 Build 0)  -->
<!DOCTYPE svg PUBLIC "-//W3C//DTD SVG 1.1//EN" "http://www.w3.org/Graphics/SVG/1.1/DTD/svg11.dtd">
<svg version="1.1" id="Capa_1" xmlns="http://www.w3.org/2000/svg" xmlns:xlink="http://www.w3.org/1999/xlink" x="0px" y="0px"
	 viewBox="284 374 180.4 44.2" enable-background="new 284 374 180.4 44.2" xml:space="preserve">
<g>
	<path fill="#666666" d="M303.6,408.2c0,1.4,1.1,2.4,2.4,2.4c1.3,0,2.4-1.1,2.4-2.4c0-1.3-1.1-2.4-2.4-2.4
		C304.7,405.8,303.6,406.9,303.6,408.2z M303.6,374v9.8h4.9v-4.7c8.3,1.2,14.7,8.3,14.7,16.9c0,9.5-7.7,17.1-17.1,17.1
		s-17.1-7.7-17.1-17.1c0-4.1,1.4-7.9,3.9-10.8l13.3,13.3l3.4-3.4l-16.6-16.6v0c-5.4,4-8.8,10.4-8.8,17.6c0,12.2,9.8,22,22,22
		c12.2,0,22-9.9,22-22c0-12.2-9.9-22-22-22H303.6z M320.7,396c0-1.3-1.1-2.4-2.4-2.4c-1.3,0-2.4,1.1-2.4,2.4c0,1.3,1.1,2.4,2.4,2.4
		C319.6,398.4,320.7,397.3,320.7,396z M291.3,396c0,1.3,1.1,2.4,2.4,2.4c1.3,0,2.4-1.1,2.4-2.4c0-1.3-1.1-2.4-2.4-2.4
		C292.4,393.6,291.3,394.7,291.3,396z"/>
</g>
<text transform="matrix(1 0 0 1 336.8001 408.5998)" fill="#666666" font-family="'Kefa-Bold'" font-size="38">Tracky</text>
</svg>
